brandFactory_export/2.Regular/Bateria media_2Regular.svg

<?xml version="1.0" encoding="UTF-8"?>
<svg width="24px" height="24px" viewBox="0 0 24 24" version="1.1" xmlns="http://www.w3.org/2000/svg" xmlns:xlink="http://www.w3.org/1999/xlink">
    <title>2.Regular/Bateria media_2Regular</title>
    <g id="Symbols" stroke="none" stroke-width="1" fill="none" fill-rule="evenodd">
        <g id="2.Regular/Bateria-media_2Regular" fill="#5CB615" fill-rule="nonzero">
            <path d="M18.7277311,19.7747899 L18.7277311,6.46386555 C18.7277311,5.48235294 18.4957983,4.77983193 18.0218487,4.31932773 C17.5478992,3.85546218 16.8252101,3.6302521 15.8134454,3.6302521 L8.9697479,3.6302521 C7.96806723,3.6302521 7.2487395,3.86218487 6.76470588,4.33613445 C6.28739496,4.80672269 6.05546218,5.49915966 6.05546218,6.46386555 L6.05546218,19.7747899 C6.05546218,20.7663866 6.28739496,21.4689076 6.76470588,21.9294118 C7.23865546,22.3865546 7.95798319,22.6084034 8.9697479,22.6084034 L15.8134454,22.6084034 C16.8252101,22.6084034 17.5445378,22.3865546 18.0184874,21.9294118 C18.4957983,21.4689076 18.7277311,20.7630252 18.7277311,19.7747899 Z M10.2369748,1.81176471 L10.2369748,2.61176471 L14.5462185,2.61176471 L14.5462185,1.81176471 C14.5462185,1.37142857 14.4084034,1.23697479 14.3647059,1.19327731 C14.3210084,1.14957983 14.1831933,1.01512605 13.7294118,1.01512605 L11.0571429,1.01512605 C10.610084,1.01512605 10.4722689,1.15294118 10.4252101,1.2 C10.3747899,1.24369748 10.2369748,1.38151261 10.2369748,1.81176471 Z M18.7647059,3.6 C19.4436975,4.26218487 19.7731092,5.19663866 19.7731092,6.46386555 L19.7731092,19.7747899 C19.7731092,21.0487395 19.4403361,21.989916 18.7546218,22.6521008 C18.0756303,23.307563 17.1142857,23.6268908 15.8134454,23.6268908 L8.9697479,23.6268908 C7.66890756,23.6268908 6.70756303,23.307563 6.02857143,22.6554622 C5.34285714,21.9932773 5.01008403,21.0521008 5.01008403,19.7781513 L5.01008403,6.46722689 C5.01008403,5.22352941 5.34285714,4.29243697 6.02184874,3.62352941 C6.71428571,2.94453782 7.67563025,2.61512605 8.9697479,2.61512605 L9.19159664,2.61512605 L9.19159664,1.81176471 C9.19159664,1.25042017 9.35630252,0.803361345 9.6789916,0.484033613 C10.005042,0.164705882 10.4689076,0 11.0571429,0 L13.7294118,0 C14.3176471,0 14.7815126,0.161344538 15.1042017,0.477310924 C15.4268908,0.793277311 15.5882353,1.24369748 15.5882353,1.81176471 L15.5882353,2.61176471 L15.8134454,2.61176471 C17.1176471,2.61176471 18.0823529,2.93445378 18.7647059,3.6 Z M16.6638655,19.0084034 L16.6638655,13.0621849 L8.11596639,13.0621849 L8.11596639,19.0084034 C8.11596639,19.8016807 8.77815126,20.4470588 9.59495798,20.4470588 L15.1882353,20.4470588 C16.0016807,20.4470588 16.6638655,19.8016807 16.6638655,19.0084034 Z M17.1848739,12.0470588 C17.4739496,12.0470588 17.7092437,12.2722689 17.7092437,12.5546218 L17.7092437,19.0084034 C17.7092437,20.3630252 16.5764706,21.4621849 15.1848739,21.4621849 L9.59495798,21.4621849 C8.20336134,21.4621849 7.07058824,20.3630252 7.07058824,19.0084034 L7.07058824,12.5546218 C7.07058824,12.2722689 7.30588235,12.0470588 7.59159664,12.0470588 L17.1848739,12.0470588 Z" id="Bateria-media_2Regular"></path>
        </g>
    </g>
</svg>

<svg width="24" height="24" viewBox="0 0 24 24" xmlns="http://www.w3.org/2000/svg"><path d="M18.728 19.775V6.464c0-.982-.232-1.684-.706-2.145-.474-.464-1.197-.689-2.209-.689H8.97c-1.002 0-1.721.232-2.205.706-.478.47-.71 1.163-.71 2.128v13.31c0 .992.232 1.695.71 2.155.474.458 1.193.68 2.205.68h6.843c1.012 0 1.732-.222 2.205-.68.478-.46.71-1.166.71-2.154zM10.237 1.812v.8h4.31v-.8c0-.44-.139-.575-.182-.619-.044-.043-.182-.178-.636-.178h-2.672c-.447 0-.585.138-.632.185-.05.044-.188.182-.188.612zM18.765 3.6c.679.662 1.008 1.597 1.008 2.864v13.31c0 1.275-.333 2.216-1.018 2.878-.68.656-1.64.975-2.942.975H8.97c-1.301 0-2.262-.32-2.941-.972-.686-.662-1.019-1.603-1.019-2.877V6.468c0-1.244.333-2.176 1.012-2.844.692-.68 1.654-1.009 2.948-1.009h.222v-.803c0-.562.164-1.009.487-1.328.326-.32.79-.484 1.378-.484h2.672c.589 0 1.053.161 1.375.477.323.316.484.767.484 1.335v.8h.225c1.305 0 2.27.322 2.952.988zm-2.101 15.408v-5.946H8.116v5.946c0 .794.662 1.44 1.479 1.44h5.593c.814 0 1.476-.646 1.476-1.44zm.52-6.96c.29 0 .525.224.525.507v6.453c0 1.355-1.133 2.454-2.524 2.454h-5.59c-1.392 0-2.524-1.099-2.524-2.454v-6.453c0-.283.235-.508.52-.508h9.594z" fill="#5CB615" fill-rule="nonzero"/></svg>
